X: 21435
T: Kevin Crawford's
R: jig
M: 6/8
K: Bminor
|:BFA Bde|fBB gfe|Acd cde|feg fed|
BFA Bde|fBB gfe|Acd cde|1 dcA B2A/c/:|2 dcA B2d/e/||
|:fba gfg|fed edc|eag fef|edc dcB|
fba gfg|fed edc|Acd cde|1 dcA B2d/e/:|2 dcA B2A/c/||

